icons/Buildings/home-gear-fill.svg

<svg viewBox="0 0 24 24" xmlns="http://www.w3.org/2000/svg"><path d="M20 20.0001C20 20.5524 19.5523 21.0001 19 21.0001H5C4.44772 21.0001 4 20.5524 4 20.0001V11.0001L1 11.0001L11.3273 1.61162C11.7087 1.26488 12.2913 1.26488 12.6727 1.61162L23 11.0001L20 11.0001V20.0001ZM8.59208 13.8081L7.60099 14.3803L8.6017 16.1135L9.5943 15.5404C9.98756 15.9118 10.467 16.1931 10.9994 16.3514V17.4957H13.0007V16.3513C13.5331 16.193 14.0125 15.9116 14.4057 15.5403L15.3984 16.1134L16.399 14.3802L15.4079 13.8079C15.4696 13.548 15.5022 13.2767 15.5022 12.9979C15.5022 12.719 15.4696 12.4478 15.4078 12.1878L16.399 11.6155L15.3983 9.88237L14.4056 10.4555C14.0124 10.0841 13.533 9.80276 13.0006 9.64448V8.5001H10.9993V9.64448C10.4669 9.80277 9.98747 10.0841 9.59421 10.4555L8.60164 9.88247L7.60099 11.6156L8.59205 12.1878C8.53034 12.4478 8.49768 12.7191 8.49768 12.9979C8.49768 13.2768 8.53035 13.5481 8.59208 13.8081ZM12 14.4972C11.171 14.4972 10.499 13.8259 10.499 12.9979C10.499 12.1699 11.171 11.4986 12 11.4986C12.8289 11.4986 13.5009 12.1699 13.5009 12.9979C13.5009 13.8259 12.8289 14.4972 12 14.4972Z"/></svg>

<svg xmlns="http://www.w3.org/2000/svg" viewBox="0 0 24 24">
    <g>
        <path fill="none" d="M0 0h24v24H0z"/>
        <path d="M20 20a1 1 0 0 1-1 1H5a1 1 0 0 1-1-1v-9H1l10.327-9.388a1 1 0 0 1 1.346 0L23 11h-3v9zM8.592 13.808l-.991.572 1 1.733.993-.573a3.5 3.5 0 0 0 1.405.811v1.145h2.002V16.35a3.5 3.5 0 0 0 1.405-.81l.992.572L16.4 14.38l-.991-.572a3.504 3.504 0 0 0 0-1.62l.991-.573-1-1.733-.993.573A3.5 3.5 0 0 0 13 9.645V8.5h-2.002v1.144a3.5 3.5 0 0 0-1.405.811l-.992-.573L7.6 11.616l.991.572a3.504 3.504 0 0 0 0 1.62zm3.408.69a1.5 1.5 0 1 1-.002-3.001 1.5 1.5 0 0 1 .002 3z"/>
    </g>
</svg>
